common/src/main/resources/icons/plugins/markdown/Header_level_toggle_type.svg

<svg xmlns="http://www.w3.org/2000/svg" width="16" height="16" fill="#78909C" data-big="true" viewBox="0 0 24 24"><path d="M3 4h2v6h4V4h2v14H9v-6H5v6H3zm10 4h2.31l.32-3h2l-.32 3h2l.32-3h2l-.32 3H23v2h-1.9l-.2 2H23v2h-2.31l-.32 3h-2l.32-3h-2l-.32 3h-2l.32-3H13v-2h1.9l.2-2H13zm4.1 2-.2 2h2l.2-2z"/></svg>

<!--
  - The MIT License (MIT)
  -
  - Copyright (c) 2015-2024 Elior "Mallowigi" Boukhobza
  -
  - Permission is hereby granted, free of charge, to any person obtaining a copy
  - of this software and associated documentation files (the "Software"), to deal
  - in the Software without restriction, including without limitation the rights
  - to use, copy, modify, merge, publish, distribute, sublicense, and/or sell
  - copies of the Software, and to permit persons to whom the Software is
  - furnished to do so, subject to the following conditions:
  -
  - The above copyright notice and this permission notice shall be included in all
  - copies or substantial portions of the Software.
  -
  - THE SOFTWARE IS PROVIDED "AS IS", WITHOUT WARRANTY OF ANY KIND, EXPRESS OR
  - IMPLIED, INCLUDING BUT NOT LIMITED TO THE WARRANTIES OF MERCHANTABILITY,
  - FITNESS FOR A PARTICULAR PURPOSE AND NONINFRINGEMENT. IN NO EVENT SHALL THE
  - AUTHORS OR COPYRIGHT HOLDERS BE LIABLE FOR ANY CLAIM, DAMAGES OR OTHER
  - LIABILITY, WHETHER IN AN ACTION OF CONTRACT, TORT OR OTHERWISE, ARISING FROM,
  - OUT OF OR IN CONNECTION WITH THE SOFTWARE OR THE USE OR OTHER DEALINGS IN THE
  - SOFTWARE.
  -->


<svg data-big="true" xmlns="http://www.w3.org/2000/svg" fill="#78909C" version="1.1" width="16px" height="16px"
     viewBox="0 0 24 24">
  <path
    d="M3,4H5V10H9V4H11V18H9V12H5V18H3V4M13,8H15.31L15.63,5H17.63L17.31,8H19.31L19.63,5H21.63L21.31,8H23V10H21.1L20.9,12H23V14H20.69L20.37,17H18.37L18.69,14H16.69L16.37,17H14.37L14.69,14H13V12H14.9L15.1,10H13V8M17.1,10L16.9,12H18.9L19.1,10H17.1Z"/>
</svg>
